app/dist/common/images/hongta-securities-coltd.svg

<svg height="18" viewBox="0 0 18 18" width="18" xmlns="http://www.w3.org/2000/svg"><path d="m0 0h18v18h-18z" fill="#f0f3fa"/><path d="m4 5h3.21v1h-2.21v7h8v-7h-.34v-1h1.34v9h-10z" fill="#d7291a"/><path d="m6.97 10.56c-.74-4.31 2.37-7.5 4.03-8.56v2.6c-3.26 1.86-4.04 4.75-4.03 5.96zm.79 1.96c-.92-2.66 1.77-4.3 3.24-4.8v1.87c-2.52.59-3.2 2.2-3.24 2.93z" fill="#d22817"/><path d="m7.35 11.42c-.43-4.26 3.45-6.62 5.45-7.26l-1.24 2.58c-3.38 1.23-4.22 3.64-4.22 4.68z" fill="#e77b1b"/></svg>

<!-- by TradingView --><svg width="18" height="18" viewBox="0 0 18 18" xmlns="http://www.w3.org/2000/svg"><path fill="#F0F3FA" d="M0 0h18v18H0z"/><path d="M4 5h3.21v1H5v7h8V6h-.34V5H14v9H4V5Z" fill="#D7291A"/><path d="M6.97 10.56C6.23 6.25 9.34 3.06 11 2v2.6c-3.26 1.86-4.04 4.75-4.03 5.96ZM7.76 12.52c-.92-2.66 1.77-4.3 3.24-4.8v1.87c-2.52.59-3.2 2.2-3.24 2.93Z" fill="#D22817"/><path d="M7.35 11.42C6.92 7.16 10.8 4.8 12.8 4.16l-1.24 2.58c-3.38 1.23-4.22 3.64-4.22 4.68Z" fill="#E77B1B"/></svg>
